symbolic/24x24/places/folder-yellow-applications.svg

<svg xmlns="http://www.w3.org/2000/svg" width="24" height="24" version="1">
 <rect style="opacity:0.2" width="20" height="12" x="2" y="9.5" rx="1" ry="1"/>
 <path style="fill:#b58f1b" d="M 2,17 C 2,17.554 2.446,18 3,18 H 21 C 21.554,18 22,17.554 22,17 V 6 C 22,5.446 21.554,5 21,5 H 12 C 10.5,5 10,3 8.5,3 H 3 C 2.446,3 2,3.446 2,4"/>
 <rect style="opacity:0.2" width="20" height="12" x="2" y="8.5" rx="1" ry="1"/>
 <rect style="fill:#e4e4e4" width="16" height="8" x="4" y="7" rx="1" ry="1"/>
 <rect style="fill:#e2b322" width="20" height="12" x="2" y="9" rx="1" ry="1"/>
 <path style="opacity:0.1;fill:#ffffff" d="M 3,3 C 2.446,3 2,3.446 2,4 V 4.5 C 2,3.946 2.446,3.5 3,3.5 H 8.5 C 10,3.5 10.5,5.5 12,5.5 H 21 C 21.554,5.5 22,5.946 22,6.5 V 6 C 22,5.446 21.554,5 21,5 H 12 C 10.5,5 10,3 8.5,3 Z"/>
 <g style="fill:#4f3e0c" transform="matrix(0.5618517,0,0,0.5,-3.0330883,1.358696)">
  <path style="fill:#4f3e0c" d="m 29.573776,35.282608 -0.749596,-2 h -4.264944 l -0.723748,2 h -3.308562 c 0.758212,-3.153473 1.52504,-6.022617 2.300484,-8.607431 0.775445,-2.602047 1.525041,-5.066236 2.248789,-7.392569 h 3.463651 c 0.758212,2.343565 1.507808,4.833602 2.248788,7.470113 0.758213,2.619279 1.490577,5.462574 2.197092,8.529887 z M 26.73048,22.384385 25.153743,29.282608 h 3.127626 z"/>
 </g>
</svg>

<svg xmlns="http://www.w3.org/2000/svg" width="24" height="24" version="1"><rect style="opacity:.2" width="20" height="12" x="2" y="9.5" rx="1" ry="1"/><path style="fill:#b58f1b" d="M2 17c0 .554.446 1 1 1h18c.554 0 1-.446 1-1V6c0-.554-.446-1-1-1h-9c-1.5 0-2-2-3.5-2H3c-.554 0-1 .446-1 1"/><rect style="opacity:.2" width="20" height="12" x="2" y="8.5" rx="1" ry="1"/><rect style="fill:#e4e4e4" width="16" height="8" x="4" y="7" rx="1" ry="1"/><rect style="fill:#e2b322" width="20" height="12" x="2" y="9" rx="1" ry="1"/><path style="opacity:.1;fill:#fff" d="M3 3c-.554 0-1 .446-1 1v.5c0-.554.446-1 1-1h5.5c1.5 0 2 2 3.5 2h9c.554 0 1 .446 1 1V6c0-.554-.446-1-1-1h-9c-1.5 0-2-2-3.5-2z"/><path style="fill:#4f3e0c" d="m29.574 35.283-.75-2H24.56l-.724 2h-3.308a161.547 161.547 0 0 1 2.3-8.608 646.104 646.104 0 0 1 2.25-7.392h3.463a200.844 200.844 0 0 1 2.249 7.47c.758 2.619 1.49 5.462 2.197 8.53zM26.73 22.384l-1.576 6.899h3.127z" transform="matrix(.56185 0 0 .5 -3.033 1.359)"/></svg>
